theme/assets/images/sponsors/magicline.svg

<svg viewBox="0 0 95.6 96.7" xmlns="http://www.w3.org/2000/svg"><path d="m95.3 50c.7-2 .1-4.2-1.4-5.8l-42.1-42.5c-2-2-5.5-2.5-8 0l-42.1 42.6c-2 2-2.5 5.5 0 8.1l42.1 42.6c1.2 1.2 2.6 1.7 3.9 1.7 1.5 0 3-.6 4-1.7l42.1-42.6c.3-.4 1.1-1.2 1.5-2.4zm-73.8 11.1-12.7-12.8 12.7-12.8zm26.3 26.6-15.9-16.1v-9.6l15.8 16.1 1.3-1.3 14.7-14.8.1 9.5zm-.1-26-26.1-26.4 26.2-26.4 26.1 26.4zm26.3-.6v-25.6l12.7 12.8z" fill="#fff"/></svg>

<svg xmlns="http://www.w3.org/2000/svg" viewBox="0 0 95.6 96.7"><path d="M95.3 50c.7-2 .1-4.2-1.4-5.8L51.8 1.7c-2-2-5.5-2.5-8 0L1.7 44.3c-2 2-2.5 5.5 0 8.1L43.8 95c1.2 1.2 2.6 1.7 3.9 1.7 1.5 0 3-.6 4-1.7l42.1-42.6c.3-.4 1.1-1.2 1.5-2.4zM21.5 61.1L8.8 48.3l12.7-12.8v25.6zm26.3 26.6L31.9 71.6V62l15.8 16.1 1.3-1.3L63.7 62l.1 9.5-16 16.2zm-.1-26L21.6 35.3 47.8 8.9l26.1 26.4-26.2 26.4zm26.3-.6V35.5l12.7 12.8L74 61.1z" fill="#fff"/></svg>
